X:6
T:Saint, saint, saint
C:J.P. Lecot
M:2/4
L:1/4
K:Dm
DA|FG/G/|AF/F/|EF/F/|ED/C/|D2||[P:1]A/A/ =B/B/|cA|GF|
E2|AA|G2|c=B|A2||[P:2]A=B|cA|GF|E2|A2|G2|
c=B|A2||[P:3]A=B|cA|GF|E2|AA|G2|c=B|A2||
